X:1
P: Coldingham
I: Coldingham, Jig, A
C: Muriel Johnstone
C: Two Score More Tunes for Scottish Country Dancing
M: 6/8
Z: arranged by Terry Traub 2002-02-20
R: jig
K: A
|:E| "A" AAA c2e|"D"f2 e afe|"A"fec ecA| "Bm"BAF "E7"F2 E|\
  "A"AAA c2e|"D"f2e afe|"A"fec "E"ecB| "A"cA"D"A "A"A2 :|
|e|"D"f2 e afe|"A"fec ecA|"Bm"BAF FGA|"E7"F2 E EFG|\
  "A"A2 A EFA|"Bm"B2 A "C#7"cBc|"F#m"A2 f "E7"ecB|"A"cA"D"A "A7"Ace|
"D"f2 e afe|"A"fec "F#m"ecA|"Bm"BAF "B7"FGA|"E"[F2D2] E "E7"EFG|\
  "A"A2 A EFA|"Bm"B2 A "C#7"cBc|"F#m"A2 f "E7"ecB| "A"cA"D"A "A"A2|]
